X:6734
T:Hans, Hans...
R:
O:
S:source
B:Frau Nachtigall (Straburg - 1928)
Z:<anamnese@caramail.com> -- http://anamnese.fr.st
N:p.120
M:3/4
L:1/4
Q:1/4=130
K:E
E2 z | G2 z | B3 | zz E | F G/-G/ B | A>G F | DF A/-A/ | G>F E | G>EB, | G>EB, |
G>EB, | G>EB, |EGA | HB3 | cde | B>A G | AFB | G/ F/ G/ A/ B | cde | B>AG | AFD | E2 z |]
